aloe_vera/img/wrapper3.svg

<svg width="75" height="75" viewBox="0 0 75 75" fill="none" xmlns="http://www.w3.org/2000/svg">
<path d="M74.5787 39.1673L70.9221 32.0854V19.8438C70.9221 19.0457 70.275 18.3985 69.4768 18.3985H50.3123L50.2111 15.8982C50.2111 15.1 49.564 14.4529 48.7658 14.4529H41.0624V1.44529C41.0624 0.647128 40.4153 0 39.6171 0H19.7589C18.9607 0 18.3136 0.647128 18.3136 1.44529V29.4839H1.67833C0.880347 29.4998 0.246226 30.1596 0.261944 30.9575C0.267906 31.2605 0.369076 31.5539 0.551001 31.7964L7.69073 40.786L8.32665 46.4082C8.36532 46.765 8.53532 47.0947 8.8036 47.3332L15.6543 53.3601C16.2542 53.8865 17.1675 53.8267 17.6939 53.2267C17.7409 53.1733 17.7837 53.1163 17.8222 53.0565L20.7128 48.7207L26.2627 48.9375L38.2297 62.581V68.7524C38.2282 69.3169 38.5556 69.8306 39.0679 70.0676L49.474 74.866C50.1985 75.2013 51.0575 74.8858 51.3926 74.1614C51.4812 73.9701 51.5269 73.7616 51.5263 73.5507V61.5548L55.472 56.4385L59.8078 56.2073C60.1903 56.1867 60.5489 56.0152 60.8051 55.7303L74.3619 40.8005C74.7676 40.3546 74.854 39.7037 74.5787 39.1673ZM38.1719 58.1873L27.9681 46.625C27.7076 46.3278 27.3369 46.1502 26.942 46.1336L19.9612 45.859C19.4698 45.8599 19.0126 46.1103 18.7472 46.5238L16.3769 50.1804L11.2028 45.6278L10.5813 40.1501C10.5511 39.8808 10.446 39.6255 10.2778 39.413L4.67007 32.3745H19.7589C20.557 32.3745 21.2042 31.7273 21.2042 30.9292V3.07846H38.1719V58.1873ZM41.0624 17.4591H47.3783L47.4795 19.9161C47.4795 20.7142 48.1266 21.3614 48.9248 21.3614H68.0315V31.0737H41.0624V17.4591ZM59.0852 53.3601L54.6048 53.6058C54.1831 53.6283 53.7924 53.8343 53.5353 54.1694L48.8815 60.1963C48.6856 60.4485 48.579 60.7585 48.5779 61.0779V71.2816L41.0624 67.8129V33.892H68.5229L71.4858 39.6732L59.0852 53.3601Z" fill="white"/>
<path d="M35.7969 30.7211C35.5743 30.4898 35.2809 30.3393 34.9633 30.2933L32.2317 29.903L31.0177 27.4316C30.6616 26.7172 29.7939 26.4267 29.0794 26.7828C28.7985 26.9228 28.5707 27.1507 28.4306 27.4316L27.2166 29.903L24.485 30.2354C23.6952 30.35 23.1476 31.0833 23.2623 31.8733C23.3084 32.1909 23.4589 32.4843 23.6901 32.7069L25.6557 34.6869L25.1932 37.4041C25.0624 38.1916 25.5946 38.9359 26.3819 39.0667C26.692 39.1182 27.0103 39.0673 27.2889 38.9216L29.7314 37.5775L32.1739 38.8638C32.8812 39.2338 33.7545 38.9603 34.1245 38.2532C34.2701 37.9748 34.3211 37.6563 34.2696 37.3463L33.7927 34.6869L35.7582 32.7647C36.3331 32.211 36.3505 31.2961 35.7969 30.7211ZM31.2199 33.1405C30.8757 33.4734 30.7187 33.9551 30.8007 34.4268L30.9019 35.0049L30.396 34.6869C29.9753 34.466 29.4727 34.466 29.0519 34.6869L28.5316 34.9615L28.6328 34.3834C28.7148 33.9117 28.5578 33.4301 28.2137 33.0971L27.7945 32.6924L28.3726 32.6491C28.8427 32.5784 29.2479 32.2813 29.4566 31.8542L29.7168 31.3339L29.9769 31.8542C30.1856 32.2813 30.5908 32.5784 31.0609 32.6491L31.639 32.7358L31.2199 33.1405Z" fill="white"/>
</svg>

<svg width="75" height="75" fill="none" xmlns="http://www.w3.org/2000/svg"><path d="M74.579 39.167l-3.657-7.082V19.844c0-.798-.647-1.446-1.445-1.446H50.312l-.1-2.5c0-.798-.648-1.445-1.446-1.445h-7.704V1.445C41.062.647 40.415 0 39.617 0H19.76c-.798 0-1.445.647-1.445 1.445v28.039H1.678a1.446 1.446 0 00-1.127 2.312l7.14 8.99.636 5.622c.038.357.208.687.477.925l6.85 6.027a1.445 1.445 0 002.168-.303l2.89-4.336 5.55.217L38.23 62.58v6.171a1.445 1.445 0 00.838 1.316l10.406 4.798a1.445 1.445 0 002.052-1.315V61.555l3.946-5.117 4.336-.23a1.45 1.45 0 00.997-.478L74.362 40.8a1.446 1.446 0 00.217-1.633zm-36.407 19.02L27.968 46.625a1.445 1.445 0 00-1.026-.491l-6.98-.275c-.492 0-.95.251-1.215.665l-2.37 3.656-5.174-4.552-.622-5.478a1.447 1.447 0 00-.303-.737L4.67 32.375h15.09c.798 0 1.445-.648 1.445-1.446V3.08h16.968v55.108zm2.89-40.728h6.316l.102 2.457c0 .798.647 1.445 1.445 1.445H68.03v9.713H41.062V17.459zM59.085 53.36l-4.48.246a1.445 1.445 0 00-1.07.563l-4.653 6.027a1.445 1.445 0 00-.304.882v10.204l-7.516-3.47v-33.92h27.46l2.964 5.781-12.4 13.687z" fill="#fff"/><path d="M35.797 30.721a1.444 1.444 0 00-.834-.428l-2.731-.39-1.214-2.471a1.445 1.445 0 00-2.587 0l-1.214 2.471-2.732.332a1.445 1.445 0 00-.795 2.472l1.966 1.98-.463 2.717a1.445 1.445 0 002.096 1.518l2.442-1.344 2.443 1.286a1.445 1.445 0 002.096-1.518l-.477-2.66 1.965-1.921a1.445 1.445 0 00.039-2.044zm-4.577 2.42a1.445 1.445 0 00-.42 1.286l.102.578-.506-.318a1.445 1.445 0 00-1.344 0l-.52.275.1-.579a1.445 1.445 0 00-.418-1.286l-.42-.405.579-.043c.47-.07.875-.368 1.084-.795l.26-.52.26.52c.209.427.614.724 1.084.795l.578.087-.42.405z" fill="#fff"/></svg>
